X: 5937
T: Cameronian, The
R: reel
M: 4/4
K: Dmajor
dB|:A2 FA DAFA|GFEF GBdB|BAFA DAFA|GBAG FDdB|
AF F2 DF F2|GFEF GBdB|BAFA DAFA|GBAG FDDB:|
|:Addc d3A|(3Bcd ef gfed|(3cBA eA fAed|(3Bcd ef gfeg|
faeg faeg|fedc defg|(3agf ge fdec|dBAG FDDB:|

